X:1
T:Boozing
M:3/4
L:1/4
K:G
 z2 D| D G F| E A G| F B A| G2 d| d2 B| G A B| A3| G2 D| D G F| E A G|\
 F B A| G2 d| d2 B| G A B| A3| G2 B| B B B| B c B| A A A| A2 G| G G G|\
 G A G| F D D| D2 D| D G F| E A G| F B A| G2 d| d2 B| G A B| A3| G2 z|\
 D2 G| E2 A| F B A| G3| d2 B| B2 G| G F G| A3| D G F| E A G| F B A|\
 G2 d/2d/2| d2 B| G A B| A3| G2 z|
